dist/img/stack/stack-2.svg

<svg width="110" height="110" viewBox="0 0 110 110" fill="none" xmlns="http://www.w3.org/2000/svg">
<path d="M95.5055 55.4039C95.5055 49.9892 88.7077 44.8577 78.2852 41.6755C80.6905 31.0792 79.6216 22.6488 74.9112 19.9497C73.8255 19.3166 72.5563 19.0167 71.17 19.0167V22.7321C71.9382 22.7321 72.5563 22.882 73.074 23.1652C75.3455 24.4648 76.3312 29.413 75.5625 35.7775C75.3791 37.3437 75.0785 38.993 74.711 40.6758C71.437 39.8761 67.8627 39.2597 64.1047 38.8598C61.85 35.7775 59.5116 32.9785 57.1564 30.5293C62.6015 25.4811 67.7127 22.7154 71.1867 22.7154V19C66.5932 19 60.5805 22.2655 54.501 27.9302C48.421 22.2989 42.4083 19.0666 37.8151 19.0666V22.782C41.2725 22.782 46.4001 25.5311 51.8451 30.546C49.5067 32.9951 47.1683 35.7775 44.9468 38.8598C41.172 39.2597 37.5978 39.8761 34.3242 40.6925C33.9398 39.0264 33.656 37.4103 33.4554 35.8609C32.6708 29.4964 33.6392 24.5481 35.8943 23.2319C36.3951 22.932 37.0465 22.7987 37.8151 22.7987V19.0833C36.412 19.0833 35.1425 19.3832 34.0403 20.0163C29.3467 22.7154 28.2946 31.1292 30.7163 41.6922C20.3274 44.891 13.5629 50.0059 13.5629 55.4039C13.5629 60.819 20.3608 65.9506 30.7831 69.1326C28.3779 79.7291 29.4469 88.1592 34.1572 90.8584C35.2429 91.4913 36.512 91.7913 37.9152 91.7913C42.5083 91.7913 48.5214 88.5259 54.6011 82.8612C60.6807 88.4927 66.6938 91.7249 71.2869 91.7249C72.6897 91.7249 73.9591 91.425 75.0617 90.7917C79.7549 88.0925 80.8074 79.6788 78.3853 69.1161C88.741 65.9338 95.5055 60.8022 95.5055 55.4039ZM73.759 44.2913C73.1409 46.4406 72.3725 48.6562 71.5039 50.8721C70.8193 49.5396 70.1011 48.2066 69.3159 46.8736C68.5477 45.5408 67.729 44.2412 66.9108 42.975C69.2824 43.3249 71.5707 43.7581 73.759 44.2913ZM66.1089 62.035C64.8062 64.2845 63.4701 66.417 62.0838 68.3997C59.5949 68.6162 57.0731 68.7328 54.5342 68.7328C52.0121 68.7328 49.4899 68.6162 47.0182 68.4161C45.6318 66.4334 44.2787 64.3176 42.976 62.0849C41.7064 59.9025 40.5543 57.6865 39.5018 55.4542C40.5375 53.2215 41.7064 50.9887 42.9595 48.8063C44.2622 46.5572 45.5982 44.4245 46.9845 42.4419C49.4734 42.2252 51.9952 42.1086 54.5342 42.1086C57.0564 42.1086 59.5785 42.2252 62.0503 42.4252C63.4366 44.4079 64.7897 46.5237 66.0924 48.7564C67.3619 50.9388 68.5142 53.1548 69.5666 55.3875C68.5142 57.6198 67.3619 59.8526 66.1089 62.035ZM71.5039 59.8693C72.3806 62.0406 73.15 64.2535 73.809 66.5C71.6208 67.0332 69.3159 67.4832 66.9276 67.833C67.7458 66.5504 68.5642 65.2341 69.3328 63.8844C70.1011 62.5517 70.8193 61.2019 71.5039 59.8693ZM54.5675 77.6465C53.0141 76.0468 51.4607 74.2641 49.9242 72.3149C51.4275 72.3815 52.9641 72.4315 54.5173 72.4315C56.0875 72.4315 57.6408 72.3983 59.1609 72.3149C57.7272 74.1733 56.1938 75.9532 54.5675 77.6465ZM42.1409 67.833C39.7692 67.4832 37.4809 67.05 35.2929 66.5168C35.9108 64.3675 36.6794 62.1516 37.5477 59.9356C38.2327 61.2686 38.9509 62.6017 39.7356 63.9343C40.5206 65.2673 41.3225 66.5667 42.1409 67.833ZM54.4841 33.1617C56.0375 34.7612 57.5908 36.544 59.1273 38.4932C57.6241 38.4266 56.0875 38.3766 54.5342 38.3766C52.9641 38.3766 51.4107 38.4099 49.891 38.4932C51.3246 36.6348 52.8579 34.8551 54.4841 33.1617ZM42.124 42.975C41.3057 44.2579 40.4874 45.5741 39.7191 46.9235C38.9509 48.2565 38.2327 49.5895 37.5477 50.9221C36.6708 48.7509 35.9017 46.5379 35.2429 44.2913C37.4308 43.7747 39.7356 43.3249 42.124 42.975ZM27.0084 63.8345C21.0957 61.3186 17.2708 58.0199 17.2708 55.4039C17.2708 52.7882 21.0957 49.4729 27.0084 46.9738C28.4447 46.3572 30.0149 45.8074 31.6351 45.2909C32.5871 48.5564 33.8397 51.9552 35.3931 55.4374C33.8566 58.9029 32.6204 62.285 31.6851 65.534C30.0317 65.0173 28.4616 64.451 27.0084 63.8345ZM35.9944 87.6429C33.7228 86.3434 32.7372 81.3951 33.5059 75.0305C33.6896 73.4646 33.9898 71.8149 34.3574 70.1321C37.6314 70.932 41.2056 71.5486 44.9636 71.9483C47.2183 75.0305 49.5568 77.8294 51.9119 80.2786C46.4669 85.3271 41.3558 88.0925 37.8816 88.0925C37.1302 88.0761 36.4956 87.926 35.9944 87.6429ZM75.6129 74.9474C76.3976 81.3117 75.4292 86.26 73.1741 87.5762C72.6732 87.8761 72.0219 88.0095 71.2532 88.0095C67.7959 88.0095 62.6684 85.2604 57.2233 80.2454C59.5616 77.7963 61.9 75.0141 64.1216 71.9315C67.8963 71.5318 71.4706 70.9152 74.7443 70.0989C75.1286 71.7818 75.4292 73.3979 75.6129 74.9474ZM82.0432 63.8345C80.6068 64.451 79.0367 65.0009 77.4165 65.5173C76.4645 62.2518 75.2118 58.853 73.6585 55.3707C75.1954 51.9053 76.4313 48.5232 77.3664 45.2742C79.0202 45.7908 80.5901 46.3572 82.0601 46.9738C87.9727 49.4892 91.7976 52.7882 91.7976 55.4039C91.7807 58.0199 87.9559 61.3354 82.0432 63.8345Z" fill="#B7B7BE"/>
<path d="M54.5172 63.0182C58.7331 63.0182 62.1505 59.6094 62.1505 55.4039C62.1505 51.1989 58.7331 47.79 54.5172 47.79C50.3016 47.79 46.8843 51.1989 46.8843 55.4039C46.8843 59.6094 50.3016 63.0182 54.5172 63.0182Z" fill="#B7B7BE"/>
</svg>

<svg width="110" height="110" viewBox="0 0 110 110" fill="none" xmlns="http://www.w3.org/2000/svg"><path d="M95.505 55.404c0-5.415-6.797-10.546-17.22-13.729 2.406-10.596 1.337-19.026-3.374-21.725-1.085-.633-2.355-.933-3.741-.933v3.715c.768 0 1.386.15 1.904.433 2.272 1.3 3.257 6.248 2.489 12.613-.184 1.566-.484 3.215-.852 4.898-3.274-.8-6.848-1.416-10.606-1.816-2.255-3.082-4.593-5.882-6.949-8.33 5.446-5.049 10.557-7.815 14.03-7.815V19c-4.593 0-10.606 3.265-16.685 8.93-6.08-5.631-12.093-8.863-16.686-8.863v3.715c3.458 0 8.585 2.75 14.03 7.764a78.73 78.73 0 00-6.898 8.314c-3.775.4-7.35 1.016-10.623 1.833a50.134 50.134 0 01-.869-4.832c-.784-6.365.184-11.313 2.44-12.63.5-.299 1.151-.432 1.92-.432v-3.716c-1.403 0-2.672.3-3.775.933-4.693 2.7-5.745 11.113-3.324 21.676-10.389 3.199-17.153 8.314-17.153 13.712 0 5.415 6.798 10.547 17.22 13.729-2.405 10.596-1.336 19.026 3.374 21.725 1.086.633 2.355.933 3.758.933 4.593 0 10.606-3.265 16.686-8.93 6.08 5.632 12.093 8.864 16.686 8.864 1.403 0 2.672-.3 3.775-.933 4.693-2.7 5.745-11.113 3.323-21.676 10.356-3.182 17.12-8.314 17.12-13.712zM73.76 44.29a74.916 74.916 0 01-2.255 6.581 78.696 78.696 0 00-2.188-3.998 90.24 90.24 0 00-2.405-3.899c2.371.35 4.66.783 6.848 1.316zm-7.65 17.744c-1.303 2.25-2.639 4.382-4.025 6.365-2.49.216-5.01.333-7.55.333a93.4 93.4 0 01-7.516-.317 91.723 91.723 0 01-4.042-6.331 86.73 86.73 0 01-3.474-6.63 86.657 86.657 0 013.457-6.649 89.38 89.38 0 014.025-6.364 87.083 87.083 0 017.55-.333c2.522 0 5.044.116 7.516.316a91.76 91.76 0 014.042 6.331 86.663 86.663 0 013.475 6.632 93.149 93.149 0 01-3.458 6.647zm5.395-2.166a71.363 71.363 0 012.305 6.631 75.105 75.105 0 01-6.881 1.333 92.231 92.231 0 002.405-3.949 94.398 94.398 0 002.17-4.015zM54.567 77.647a68.768 68.768 0 01-4.643-5.332c1.504.067 3.04.117 4.593.117 1.57 0 3.124-.034 4.644-.117a65.124 65.124 0 01-4.593 5.332zm-12.426-9.814a75.492 75.492 0 01-6.848-1.316 74.963 74.963 0 012.255-6.581 79.02 79.02 0 002.188 3.998 110.258 110.258 0 002.405 3.899zm12.343-34.671a68.728 68.728 0 014.643 5.331 104.65 104.65 0 00-4.593-.116c-1.57 0-3.123.033-4.643.116a65.136 65.136 0 014.593-5.331zm-12.36 9.813a92.188 92.188 0 00-4.576 7.947 71.226 71.226 0 01-2.305-6.63 81.246 81.246 0 016.881-1.317zm-15.116 20.86c-5.912-2.516-9.737-5.815-9.737-8.431 0-2.616 3.825-5.931 9.737-8.43 1.437-.617 3.007-1.167 4.627-1.683.952 3.265 2.205 6.664 3.758 10.146-1.536 3.466-2.773 6.848-3.708 10.097a50.894 50.894 0 01-4.677-1.7zm8.986 23.808c-2.271-1.3-3.257-6.248-2.488-12.612.184-1.566.484-3.216.851-4.899 3.274.8 6.849 1.417 10.607 1.816 2.254 3.083 4.593 5.881 6.948 8.33-5.445 5.05-10.556 7.814-14.03 7.814-.752-.016-1.386-.166-1.888-.45zm39.619-12.696c.785 6.365-.184 11.313-2.439 12.63-.5.3-1.152.433-1.92.433-3.458 0-8.586-2.75-14.03-7.765a78.726 78.726 0 006.898-8.314c3.774-.4 7.349-1.016 10.622-1.832.385 1.683.685 3.299.869 4.848zm6.43-11.113c-1.436.617-3.006 1.167-4.627 1.683-.951-3.265-2.204-6.664-3.757-10.146 1.536-3.466 2.772-6.848 3.707-10.097a53.048 53.048 0 014.694 1.7c5.913 2.515 9.738 5.814 9.738 8.43-.017 2.616-3.842 5.931-9.755 8.43z" fill="#B7B7BE"/><path d="M54.517 63.018c4.216 0 7.633-3.409 7.633-7.614s-3.417-7.614-7.633-7.614c-4.215 0-7.633 3.409-7.633 7.614s3.418 7.614 7.633 7.614z" fill="#B7B7BE"/></svg>
